temp/d702jdferup[Preset.id]_Freeway.xmp
<x:xmpmeta xmlns:x="adobe:ns:meta/" x:xmptk="Adobe XMP Core 5.6-c140 79.160451, 2017/05/06-01:08:21        ">
 <rdf:RDF xmlns:rdf="http://www.w3.org/1999/02/22-rdf-syntax-ns#">
  <rdf:Description rdf:about=""
    xmlns:xmpMM="http://ns.adobe.com/xap/1.0/mm/"
    xmlns:stRef="http://ns.adobe.com/xap/1.0/sType/ResourceRef#"
    xmlns:stEvt="http://ns.adobe.com/xap/1.0/sType/ResourceEvent#"
    xmlns:xmp="http://ns.adobe.com/xap/1.0/"
    xmlns:dc="http://purl.org/dc/elements/1.1/"
    xmlns:photoshop="http://ns.adobe.com/photoshop/1.0/"
    xmlns:crs="http://ns.adobe.com/camera-raw-settings/1.0/"
   xmpMM:OriginalDocumentID="xmp.did:8b32519a-66b5-4dbf-9298-d85a86e3aad4"
   xmpMM:DocumentID="xmp.did:0630e555-7419-8245-90cd-e4fe7763e53f"
   xmpMM:InstanceID="xmp.iid:0630e555-7419-8245-90cd-e4fe7763e53f"
   xmpMM:PreservedFileName="beyondv1.jpg"
   xmp:CreatorTool="Adobe Photoshop Lightroom Classic 8.3.1 (Windows)"
   xmp:MetadataDate="2019-08-28T19:06:03+08:00"
   xmp:ModifyDate="2019-08-28T19:06:03+08:00"
   xmp:CreateDate="2019-06-05T18:04:52+08:00"
   dc:format="image/dng"
   crs:Version="11.3"
   crs:ProcessVersion="11.0"
   crs:WhiteBalance="Custom"
   crs:IncrementalTemperature="+9"
   crs:IncrementalTint="+24"
   crs:Saturation="0"
   crs:Sharpness="0"
   crs:LuminanceSmoothing="0"
   crs:ColorNoiseReduction="0"
   crs:VignetteAmount="0"
   crs:ShadowTint="0"
   crs:RedHue="+26"
   crs:RedSaturation="+10"
   crs:GreenHue="+89"
   crs:GreenSaturation="-67"
   crs:BlueHue="-63"
   crs:BlueSaturation="-51"
   crs:Vibrance="0"
   crs:HueAdjustmentRed="0"
   crs:HueAdjustmentOrange="0"
   crs:HueAdjustmentYellow="0"
   crs:HueAdjustmentGreen="0"
   crs:HueAdjustmentAqua="0"
   crs:HueAdjustmentBlue="0"
   crs:HueAdjustmentPurple="0"
   crs:HueAdjustmentMagenta="0"
   crs:SaturationAdjustmentRed="0"
   crs:SaturationAdjustmentOrange="0"
   crs:SaturationAdjustmentYellow="0"
   crs:SaturationAdjustmentGreen="-71"
   crs:SaturationAdjustmentAqua="-64"
   crs:SaturationAdjustmentBlue="-44"
   crs:SaturationAdjustmentPurple="-78"
   crs:SaturationAdjustmentMagenta="-56"
   crs:LuminanceAdjustmentRed="0"
   crs:LuminanceAdjustmentOrange="0"
   crs:LuminanceAdjustmentYellow="0"
   crs:LuminanceAdjustmentGreen="0"
   crs:LuminanceAdjustmentAqua="0"
   crs:LuminanceAdjustmentBlue="0"
   crs:LuminanceAdjustmentPurple="0"
   crs:LuminanceAdjustmentMagenta="0"
   crs:SplitToningShadowHue="0"
   crs:SplitToningShadowSaturation="0"
   crs:SplitToningHighlightHue="0"
   crs:SplitToningHighlightSaturation="0"
   crs:SplitToningBalance="0"
   crs:ParametricShadows="0"
   crs:ParametricDarks="0"
   crs:ParametricLights="0"
   crs:ParametricHighlights="0"
   crs:ParametricShadowSplit="25"
   crs:ParametricMidtoneSplit="50"
   crs:ParametricHighlightSplit="75"
   crs:SharpenRadius="+1.0"
   crs:SharpenDetail="25"
   crs:SharpenEdgeMasking="0"
   crs:PostCropVignetteAmount="-31"
   crs:PostCropVignetteMidpoint="50"
   crs:PostCropVignetteFeather="50"
   crs:PostCropVignetteRoundness="0"
   crs:PostCropVignetteStyle="1"
   crs:PostCropVignetteHighlightContrast="0"
   crs:GrainAmount="0"
   crs:LensProfileEnable="1"
   crs:LensManualDistortionAmount="0"
   crs:PerspectiveVertical="0"
   crs:PerspectiveHorizontal="0"
   crs:PerspectiveRotate="0.0"
   crs:PerspectiveScale="100"
   crs:PerspectiveAspect="0"
   crs:PerspectiveUpright="0"
   crs:PerspectiveX="0.00"
   crs:PerspectiveY="0.00"
   crs:AutoLateralCA="0"
   crs:Exposure2012="0.00"
   crs:Contrast2012="+40"
   crs:Highlights2012="-60"
   crs:Shadows2012="+100"
   crs:Whites2012="+26"
   crs:Blacks2012="-69"
   crs:Clarity2012="-26"
   crs:DefringePurpleAmount="0"
   crs:DefringePurpleHueLo="30"
   crs:DefringePurpleHueHi="70"
   crs:DefringeGreenAmount="0"
   crs:DefringeGreenHueLo="40"
   crs:DefringeGreenHueHi="60"
   crs:Dehaze="0"
   crs:Texture="0"
   crs:ToneMapStrength="0"
   crs:ConvertToGrayscale="False"
   crs:OverrideLookVignette="False"
   crs:ToneCurveName="Linear"
   crs:ToneCurveName2012="Custom"
   crs:CameraProfile="Embedded"
   crs:CameraProfileDigest="B852F51E5D7D40FF5B83A689497D3451"
   crs:LensProfileSetup="LensDefaults"
   crs:UprightVersion="151388160"
   crs:UprightCenterMode="0"
   crs:UprightCenterNormX="0.5"
   crs:UprightCenterNormY="0.5"
   crs:UprightFocalMode="0"
   crs:UprightFocalLength35mm="35"
   crs:UprightPreview="False"
   crs:UprightTransformCount="6"
   crs:UprightFourSegmentsCount="0"
   crs:HasSettings="True"
   crs:HasCrop="False"
   crs:AlreadyApplied="False">
   <xmpMM:DerivedFrom
    stRef:instanceID="xmp.iid:3f7bedd0-6e63-7e4d-b618-febd8b8634a3"
    stRef:documentID="adobe:docid:photoshop:43194097-d159-eb43-a9cb-abb8333c8b3d"
    stRef:originalDocumentID="xmp.did:8b32519a-66b5-4dbf-9298-d85a86e3aad4"/>
   <xmpMM:History>
    <rdf:Seq>
     <rdf:li
      stEvt:action="derived"
      stEvt:parameters="converted from image/jpeg to image/dng, saved to new location"/>
     <rdf:li
      stEvt:action="saved"
      stEvt:instanceID="xmp.iid:96672af8-a375-4aa4-8147-e9ab090ff37a"
      stEvt:when="2018-06-26T12:24:06-04:00"
      stEvt:softwareAgent="Adobe Photoshop Lightroom Classic 7.3.1 (Macintosh)"
      stEvt:changed="/"/>
     <rdf:li
      stEvt:action="derived"
      stEvt:parameters="converted from image/dng to image/tiff"/>
     <rdf:li
      stEvt:action="saved"
      stEvt:instanceID="xmp.iid:11db9397-775c-9e4c-bfeb-88d8c7733418"
      stEvt:when="2019-06-05T18:16:05+08:00"
      stEvt:softwareAgent="Adobe Photoshop Camera Raw 10.3 (Windows)"
      stEvt:changed="/"/>
     <rdf:li
      stEvt:action="saved"
      stEvt:instanceID="xmp.iid:c9a41b74-369e-c445-b147-2da488d83de1"
      stEvt:when="2019-06-05T18:37:02+08:00"
      stEvt:softwareAgent="Adobe Photoshop CC (Windows)"
      stEvt:changed="/"/>
     <rdf:li
      stEvt:action="converted"
      stEvt:parameters="from image/tiff to application/vnd.adobe.photoshop"/>
     <rdf:li
      stEvt:action="derived"
      stEvt:parameters="converted from image/tiff to application/vnd.adobe.photoshop"/>
     <rdf:li
      stEvt:action="saved"
      stEvt:instanceID="xmp.iid:0a347477-0c64-ab45-87e9-95f5649dc9ed"
      stEvt:when="2019-06-05T18:37:02+08:00"
      stEvt:softwareAgent="Adobe Photoshop CC (Windows)"
      stEvt:changed="/"/>
     <rdf:li
      stEvt:action="saved"
      stEvt:instanceID="xmp.iid:5dc70d35-55e9-1446-8606-c7ebdf891678"
      stEvt:when="2019-08-28T19:05:26+08:00"
      stEvt:softwareAgent="Adobe Photoshop CC 2019 (Windows)"
      stEvt:changed="/"/>
     <rdf:li
      stEvt:action="converted"
      stEvt:parameters="from application/vnd.adobe.photoshop to image/jpeg"/>
     <rdf:li
      stEvt:action="derived"
      stEvt:parameters="converted from application/vnd.adobe.photoshop to image/jpeg"/>
     <rdf:li
      stEvt:action="saved"
      stEvt:instanceID="xmp.iid:3f7bedd0-6e63-7e4d-b618-febd8b8634a3"
      stEvt:when="2019-08-28T19:05:26+08:00"
      stEvt:softwareAgent="Adobe Photoshop CC 2019 (Windows)"
      stEvt:changed="/"/>
     <rdf:li
      stEvt:action="derived"
      stEvt:parameters="converted from image/jpeg to image/dng, saved to new location"/>
     <rdf:li
      stEvt:action="saved"
      stEvt:instanceID="xmp.iid:0630e555-7419-8245-90cd-e4fe7763e53f"
      stEvt:when="2019-08-28T19:06:03+08:00"
      stEvt:softwareAgent="Adobe Photoshop Lightroom Classic 8.3.1 (Windows)"
      stEvt:changed="/"/>
    </rdf:Seq>
   </xmpMM:History>
   <photoshop:TextLayers>
    <rdf:Bag>
     <rdf:li
      photoshop:LayerName="Beyond v1"
      photoshop:LayerText="Beyond v1"/>
    </rdf:Bag>
   </photoshop:TextLayers>
   <photoshop:DocumentAncestors>
    <rdf:Bag>
     <rdf:li>36E6890550B596D7419644701229A842</rdf:li>
     <rdf:li>9420E09E057480D67D7B118C655475E7</rdf:li>
     <rdf:li>E20BE05F76FAB502BE9D79D2A68CFEE9</rdf:li>
     <rdf:li>adobe:docid:photoshop:21cec6e0-9ae0-3e4b-b513-a0677c183f82</rdf:li>
     <rdf:li>xmp.did:3ed5a253-dd43-b84c-a70e-da6e53c535e3</rdf:li>
    </rdf:Bag>
   </photoshop:DocumentAncestors>
   <crs:ToneCurve>
    <rdf:Seq>
     <rdf:li>0, 0</rdf:li>
     <rdf:li>255, 255</rdf:li>
    </rdf:Seq>
   </crs:ToneCurve>
   <crs:ToneCurveRed>
    <rdf:Seq>
     <rdf:li>0, 0</rdf:li>
     <rdf:li>255, 255</rdf:li>
    </rdf:Seq>
   </crs:ToneCurveRed>
   <crs:ToneCurveGreen>
    <rdf:Seq>
     <rdf:li>0, 0</rdf:li>
     <rdf:li>255, 255</rdf:li>
    </rdf:Seq>
   </crs:ToneCurveGreen>
   <crs:ToneCurveBlue>
    <rdf:Seq>
     <rdf:li>0, 0</rdf:li>
     <rdf:li>255, 255</rdf:li>
    </rdf:Seq>
   </crs:ToneCurveBlue>
   <crs:ToneCurvePV2012>
    <rdf:Seq>
     <rdf:li>0, 26</rdf:li>
     <rdf:li>66, 65</rdf:li>
     <rdf:li>125, 133</rdf:li>
     <rdf:li>187, 185</rdf:li>
     <rdf:li>238, 255</rdf:li>
    </rdf:Seq>
   </crs:ToneCurvePV2012>
   <crs:ToneCurvePV2012Red>
    <rdf:Seq>
     <rdf:li>0, 0</rdf:li>
     <rdf:li>255, 255</rdf:li>
    </rdf:Seq>
   </crs:ToneCurvePV2012Red>
   <crs:ToneCurvePV2012Green>
    <rdf:Seq>
     <rdf:li>0, 0</rdf:li>
     <rdf:li>255, 255</rdf:li>
    </rdf:Seq>
   </crs:ToneCurvePV2012Green>
   <crs:ToneCurvePV2012Blue>
    <rdf:Seq>
     <rdf:li>0, 11</rdf:li>
     <rdf:li>255, 255</rdf:li>
    </rdf:Seq>
   </crs:ToneCurvePV2012Blue><crs:Name><rdf:Alt><rdf:li xml:lang="x-default">Freeway</rdf:li></rdf:Alt></crs:Name><crs:Group><rdf:Alt><rdf:li xml:lang="x-default">Preset.id</rdf:li></rdf:Alt></crs:Group>
   <crs:GradientBasedCorrections>
    <rdf:Seq>
     <rdf:li>
      <rdf:Description
       crs:What="Correction"
       crs:CorrectionAmount="1.000000"
       crs:CorrectionActive="true"
       crs:LocalExposure="0.000000"
       crs:LocalSaturation="0.000000"
       crs:LocalContrast="0.000000"
       crs:LocalClarity="0.000000"
       crs:LocalSharpness="0.250000"
       crs:LocalBrightness="0.000000"
       crs:LocalToningHue="240.000000"
       crs:LocalToningSaturation="0.000000"
       crs:LocalExposure2012="-0.190500"
       crs:LocalContrast2012="0.000000"
       crs:LocalHighlights2012="-0.714290"
       crs:LocalShadows2012="0.000000"
       crs:LocalWhites2012="0.000000"
       crs:LocalBlacks2012="0.000000"
       crs:LocalClarity2012="0.000000"
       crs:LocalDehaze="0.000000"
       crs:LocalLuminanceNoise="0.000000"
       crs:LocalMoire="0.000000"
       crs:LocalDefringe="0.000000"
       crs:LocalTemperature="0.000000"
       crs:LocalTint="0.000000"
       crs:LocalTexture="0.000000">
      <crs:CorrectionMasks>
       <rdf:Seq>
        <rdf:li
         crs:What="Mask/Gradient"
         crs:MaskValue="1.000000"
         crs:ZeroX="0.499896"
         crs:ZeroY="0.428590"
         crs:FullX="0.577845"
         crs:FullY="-0.000768"/>
       </rdf:Seq>
      </crs:CorrectionMasks>
      <crs:CorrectionRangeMask
       crs:Version="+1"
       crs:Type="0"
       crs:ColorAmount="0.500000"
       crs:LumMin="0.000000"
       crs:LumMax="1.000000"
       crs:LumFeather="0.500000"
       crs:DepthMin="0.000000"
       crs:DepthMax="1.000000"
       crs:DepthFeather="0.500000"/>
      </rdf:Description>
     </rdf:li>
     <rdf:li>
      <rdf:Description
       crs:What="Correction"
       crs:CorrectionAmount="1.000000"
       crs:CorrectionActive="true"
       crs:LocalExposure="0.000000"
       crs:LocalSaturation="0.000000"
       crs:LocalContrast="0.000000"
       crs:LocalClarity="0.000000"
       crs:LocalSharpness="0.250000"
       crs:LocalBrightness="0.000000"
       crs:LocalToningHue="240.000000"
       crs:LocalToningSaturation="0.000000"
       crs:LocalExposure2012="-0.190500"
       crs:LocalContrast2012="0.000000"
       crs:LocalHighlights2012="-0.714290"
       crs:LocalShadows2012="0.000000"
       crs:LocalWhites2012="0.000000"
       crs:LocalBlacks2012="0.000000"
       crs:LocalClarity2012="0.000000"
       crs:LocalDehaze="0.000000"
       crs:LocalLuminanceNoise="0.000000"
       crs:LocalMoire="0.000000"
       crs:LocalDefringe="0.000000"
       crs:LocalTemperature="0.000000"
       crs:LocalTint="0.000000"
       crs:LocalTexture="0.000000">
      <crs:CorrectionMasks>
       <rdf:Seq>
        <rdf:li
         crs:What="Mask/Gradient"
         crs:MaskValue="1.000000"
         crs:ZeroX="0.885407"
         crs:ZeroY="0.632051"
         crs:FullX="0.964097"
         crs:FullY="1.009470"/>
       </rdf:Seq>
      </crs:CorrectionMasks>
      <crs:CorrectionRangeMask
       crs:Version="+1"
       crs:Type="0"
       crs:ColorAmount="0.500000"
       crs:LumMin="0.000000"
       crs:LumMax="1.000000"
       crs:LumFeather="0.500000"
       crs:DepthMin="0.000000"
       crs:DepthMax="1.000000"
       crs:DepthFeather="0.500000"/>
      </rdf:Description>
     </rdf:li>
    </rdf:Seq>
   </crs:GradientBasedCorrections>
   <crs:Look
    crs:Name=""/>
  </rdf:Description>
 </rdf:RDF>
</x:xmpmeta>